!!!COM: Claude Debussy
!!!CNT: Francais
!!!TXO: Francais
!!!OTL: le Tombeau des Nai2ades
!!!LYR: Pierre Louy2s
!!!OPR: Trois Chansons de Bilitis
!!!ONM: No. 3
!!!ENC: Jacob Pegg
!!!YOR: Claude Debussy: Songs 1880-1904, Edited by Rita Benton
!!!YOR: New York: Dover publications, inc., 1981
!!!YOR: ISBN 0-486-24131-9
!!!ODT: 1898/
!!NB: Vocal melody and text only encoded.
!!NB: First instance of melodic material only encoded.
**kern	**silbe
*clef G2	*
*k[f#c#g#]	*
*M4/4	*
*MM[lento]	*
!!created: 7/24/03 7:48
!!last edited: 7/24/03 10:16
!!time in: notes 12, words 11; check notes 7, words .
!!total time: 39 min.
=1	=1
1r	.
=2	=2
8r	.
{8d	{Le
8d	long
8d	du
8d	bois
8d	cou-
8d	-vert
8d	de
=3	=3
4.f#	gi-
8e#}	-vre,}
4r	.
{8e#	je
8e#	mar-
=4	=4
2.d}	-chais;}
{8d	{mes
8d	che-
=5	=5
8a	-veux
8a	de-
8g#	-vant
8g#	ma
8g#	bou-
8f#	-che
12f#	se
12g#	fleu-
12a	-ris-
=6	=6
8b	-saient
8a	de
12g#	pe-
12f#	-tits
12a	gla-
8b-}	-c5ons,}
{8b-	{et
8dd	mes
8dd	san-
=7	=7
16b-	-da-
16b-	-les
16b-	e/-
16b-	-taient
12gn	lour-
12gn	-des
12f#	de
12gn	nei-
12gn	-ge
12fn	fan-
12e-	-geuse
12e-	et
12d	tas-
=8	=8
*M2/4	*
[4d	-se/e.
8d]}	|}
8r	.
=9	=9
*M4/4	*
2r	.
4r	.
{8c#	{Il
8d	me
=10	=10
4f#	dit:
12a	<< Que
12a	cher-
12a	-ches~
4.cc#}	~tu?}
8r	.
=11	=11
16r	.
{16gn	{Je
16gn	suis
16a	la
16a	tra-
16gn	-ce
16gn	du
16a	sa-
8a	-ty-
8gn}	-re.}
16r	.
{16ccn	{Ses
16ccn	pe-
16ccn	-tits
=12	=12
16dd	pas
16dd	four-
16dd	-chus
16dd	al-
16ee	-ter-
16ee	-nent
24b	com-
24b	-me
24b	des
8dd	trous
8b	dans
12gn	un
12gn	man-
12b	-teau
=13	=13
4gn}	blanc.>>}
4r	.
12r	.
{12gn	{Il
12gn	me
4e}	dit:}
=14	=14
12r	.
{12cn	{<<Les
12cn	sa-
12cn	-ty-
12cn	-res
12cn	sont
4cn}	morts.}
4r	.
=15	=15
2r	.
4r	.
12r	.
{12cn	{Les
12cn	sa-
=16	=16
16c#	-ty-
16c#	-res
16d#	et
16d#	les
12f#	nym-
12f#	-phes
12g#	aus-
4c#}	-si.}
16r	.
{16c#	{De-
16c#	-puis
16dn	trente
=17	=17
8gn	ans,
8e	il
8e	n'a
8f#	pas
12f#	fait
12e	un
12f#	hi-
16f#	-ver
16e	aus-
16e	-si
16f#	ter-
=18	=18
8g#	-ri-
8c#}	-ble.}
8r	.
16r	.
{16cn	{La
16dn	tra-
16dn	-ce
16en	que
16en	tu
16gn	vois
16gn	est
24a	cel-
24a	-le
24a	d'un
=19	=19
[4b-	bouc.
8b-]}	|}
8r	.
2r	.
=20	=20
*M2/4	*
2r	.
=21	=21
*M4/4	*
8r	.
{8d	{Mais
12d	res-
12d	-tons
12d	i-
8g#	-ci,
8f#	ou\
12e	est
12e	leur
12e-	tom-
=22	=22
4d}	-beau.>>}
4r	.
16r	.
{16e	{Et
16f#	a-
16g#	-vec
16b-	le
16ccn	fer
16b-	de
16ccn	sa
=23	=23
8ee-	houe
8ccn	il
12ccn	cas-
12ccn	-sa
12ccn	la
16ee-	gla-
16ee-	-ce
16ee-	de
16ee-	la
12ccn	source
12ccn	ou\
12ccn	ja-
=24	=24
*M2/4	*
8dd#	-dis
8dd#	ri-
12dd#	-aient
12dd#	les
12dd#	na-
=25	=25
*M4/4	*
*k[f#c#g#d#a#e#]	*
(4.ff#	-i2a-
8a#)	|
4a#}	-des.}
4r	.
=26	=26
4r	.
{8ee#	{Il
8dd#	pre-
8cc#	-nait
8cc#	de
12b	grands
12b	mor-
12b	-ceaux
=27	=27
4a#}	froids,}
{16an	{et
16gn	les
16gn	sou-
16an	-le-
8an	-vant
8gn	vers
8gn	le
8an	ciel
=28	=28
4b}	pa^le,}
{12b	{il
12b	re-
12b	-gar-
4b	-dait
8g#	au
8b	tra-
=29	=29
1dd#}	-vers.}
*-	*-
